X:97
T:Enchanted Wood. THO5.097,The
M:6/8
L:1/8
B:Thompson's Complete Collection of 200 Favourite Dances Vol.5
F:https://www.libraryofdance.org/manuals/1780c-Thompson-Compleat-5.pdf
Z:vmp. Peter Dunk 2024
Q:3/8=100
C:"1784"
K:A
E|EAA ABc|d2B {A/}GFE|EAA Acd|e2c B2E|
EAA ABc|d2B {A/}GFE|e2c aec|B2c A2:|
|:c/d/|eee eae|c2A B2 c/d/|eee eae|c2A B2 B/c/|
ddd fda|gec dBf|eca Bec|AAA A2:|
W:
W:Right hands across, left hands back again ./.
W:Lead down the middle, up again to the top ./:
W:1st & 2nd Couple Promenade round :/.
W:Cross over one Couple, lead to the top and cast off :/:

